!!!ONB: MCCC : IJH0449_01 : Extracted Monophonic Melody
!!!COM: Haydn, Joseph
!!!OPR: String Quartet in E-flat major
!!!OMV: 1
!!!SCT: Hob.III:71 ; Op.71 No.3
!!!ODT: 1793///
**kern
*thru
*k[b-e-a-]
*E-:
*clefF
*M2/4
4gg
4r
=1
2r
=2
2b-
=3
4g
4cc
=4
8f
8b-
16a
16b-
16cc
16a
=5
8b-
8b-
8b-
8r
=6
8f
8f
8f
8r
=7
8B-
8B-
8B-
8r
=8
2cc
=9
4f
4b-
=10
8a-
16g
16f
16e-
16d
16f
16d
=11
8e-
8e-
8e-
8r
=12
8B-
8B-
8B-
8r
=13
8G
8G
8G
8r
=14
2bb-
=15
4gg
4ccc
=16
8ff
8bb-
16aa
16bb-
16ccc
16aa
=17
8bb-
8bb-
8bb-
8r
=18
8f
8f
8f
8r
=19
8B-
8B-
8B-
8r
=20
2ccc
=21
4ff
4bb-
=22
8aa-
16gg
16ff
16ee-
16dd
16ff
16dd
=23
2eee-
=24
4.d-
16c
16d-
=25
8c
16ccc
16bb-
16aa-
16gg
16ff
16ee-
=26
16dd
16ee-
16ff
16gg
16aa-
16bb-
16ccc
16ddd
=27
2eee-
=28
4.d-
16c
16d-
=29
8c
16ccc
16bb-
16aa-
16gg
16ff
16ee-
=30
16dd
16ee-
16ff
16gg
16aa-
16bb-
16ccc
16ddd
=31
8eee-
8eee-
16ddd
16eee-
16fff
16ddd
=32
8eee-
8eee-
16ddd
16eee-
16fff
16ddd
=33
8eee-
8ccc
16bb
16ccc
16ddd
16bb
=34
8ccc
8bb-
16aa
16bb-
16ccc
16aa
=35
8bb-
8aa
16gg
16aa
16bb-
16gg
=36
16ff
16gg
16aa
16ff
16ee
16ff
16gg
16ee
=37
8ff
8ff
8gg-
8ff
=38
8gg-
8ff
16ee
16bb-
16gg
16ee
=39
8ff
8ff
8gg-
8ff
=40
8gg-
8ff
16ee
16bb-
16gg
16ee
=41
8ff
8r
8aa
8r
=42
4ff
4r
=43
4r
4ff[
=44
4ff]
4dd
=45
4gg
8cc
16dd
16ee-
=46
4ff
4aa-
=47
4gg
8aa-
8gg
=48
2gg
=49
4gg-
4ff
=50
16ccc
16aa
16ccc
16aa
8ff
8ff
=51
2ff
=52
16ee-
16ee
16ff
16ff#
8gg
8gg
=53
16ee-
16ee
16ff
16ff#
8gg
8gg
=54
16ee-
16ee
16ff
16ff#
8gg
8gg
=55
16dd
16ee-
16ee
16ff
16dd
16ee-
16ee
16ff
=56
16dd
16ee-
16ee
16ff
16dd
16ee-
16ee
16ff
=57
16dd
16ee-
16ee
16ff
16ff#
16gg
16aa-
16aa
=58
8bb-
8ddd
8fff
8fff
=59
2cc[
=60
2cc]
=61
4b-
4r
=62
2r
=63
2b-
=64
4g
4cc
=65
2b-
=66
4g
4cc
=67
2b-
=68
4a
4ee-
=69
4dd
4cc
=70
8b-
16a
16b-
8cc
8a
=71
4b-
4r
=72
2r
=73
4r
4ddd[
=74
8ddd]
16eee-
16ccc
8aa
8ff
=75
8bb-
8ff
4ddd[
=76
8ddd]
16eee-
16ccc
8aa
8ff
=77
8bb-
8ff
4ddd[
=78
8ddd]
16eee-
16ddd
8ccc
8bb-
=79
4aa
4bb-
=80
4ee-
4dd
=81
4cc
4r
=82
8r
8cc
8dd
8ee-
=83
8ff
8dd
8ee-
8ff
=84
8gg
16ff#
16gg
16aa
16gg
16bb-
16aa
=85
16ccc
16bb-
16aa
16gg
16ff
16ee-
16dd
16cc
=86
16b
16cc
16dd
16cc
16ee-
16dd
16ff
16ee-
=87
16gg
16ff
16ee-
16dd
16cc
16b-
16a-
16g
=88
16e
16f
16g
16f
16d
16e-
16f
16e-
=89
16d
16f
16b-
16b-
16e
16f
16e-
16f
=90
16d
16f
16b-
16b-
16e
16f
16e-
16f
=91
16d
16f
16b-
16b-
16d
16f
16b
16b
=92
16e-
16g
16cc
16cc
16g
16b-
16dd-
16dd-
=93
16f
16b-
16dd
16b-
16ff
16dd
16bb-
16ff
=94
8ddd
8r
8a
8r
=95
8b-
4ff
8ff[
=96
8ff]
4ee-
8dd
=97
8dd
8cc
8b-
8a
=98
8b-
4ff
8ff
=99
8ddd
8ee-
8ccc
8dd
=100
8gg
24ff
24ee-
24dd
32cc
32b-
32a
32g
32f
32e-
32d
32c
=101
2B-
=102
4.A-
16G
16A-
=103
8G
8e-
8e-
8e-
=104
8A
8f
8f
8f
=105
2B-
=106
4.B
16A
16B
=107
8c
8a-
8a-
8a-
=108
8d
8b-
8b-
8b-
=109
2r
=110
8r
8bb-
16dd
16ee-
16ff
16dd
=111
8ee-
8ee-
8ee-
8r
=112
8r
8bb-
16ff
16gg-
16aa-
16ff
=113
8gg-
8gg-
8gg-
8r
=114
8r
8bb-
16dd
16ee-
16ff
16dd
=115
8ee-
8bb-
16ee-
16ff
16gg-
16ee-
=116
8ff
8bb-
16ff
16gg-
16aa-
16ff
=117
8gg-
8gg-
8gg-
8r
=118
8ee-
8ee-
8ee-
8r
=119
8b-
8b-
8b-
8r
=120
8g-
8g-
8g-
8r
=121
2r
=122
8e-
8e-
8e-
8e-
=123
2r
=124
8f#
8f#
8f#
8f#
=125
4f#
4r
=126
8r
8ff#
16a#
16b
16cc#
16a#
=127
8b
8b
8b
8r
=128
8r
8ff#
16cc#
16dd
16ee
16cc#
=129
8dd
8dd
8dd
8r
=130
8r
8ff#
16a#
16b
16cc#
16a#
=131
8b
8ff#
16b
16cc#
16dd
16b
=132
8cc#
8ff#
16cc#
16dd
16ee
16cc#
=133
2dd
=134
4.ff#
16ee
16ff#
=135
8gg
8gg
8gg
8r
=136
8r
8ddd
16aa
16bb-
16ccc
16aa
=137
8bb-
8bb-
16gg-
16gg
16aa
16gg-
=138
4gg
4r
=139
8r
8ddd
16aa
16bb-
16ccc
16aa
=140
2bb-
=141
4.bb
16aa
16bb
=142
8ccc
8gg
16dd
16ee-
16ff
16dd
=143
4ee-
4r
=144
8r
8ggg
16ddd
16eee-
16fff
16ddd
=145
8eee-
8eee-
8eee-
8r
=146
8ccc
8ccc
8ccc
8r
=147
8gg
8gg
8gg
8r
=148
8ee-
8ee-
8ee-
8ee-
=149
2ee-
=150
4cc
4ff
=151
8b-
8ee-
16dd
16ee-
16ff
16dd
=152
8ee-
8ee-
8ee-
8r
=153
8b-
8b-
8b-
8r
=154
8e-
8e-
8e-
8r
=155
2ff
=156
4b-
4ee-
=157
8dd-
16cc
16b-
16a-
16g
16b-
16g
=158
16a-
16e-
16d
16e-
16d
16e-
16d-
16e-
=159
16c
16e-
16a-
16e-
16c
16e-
16B-
16e-
=160
16c
16e-
16a-
16e-
16c
16e-
16B-
16e-
=161
16c
16e-
16a-
16a-
16c
16e-
16a
16a
=162
16b-
16f
16e
16f
16e
16f
16e-
16f
=163
16d
16f
16b-
16f
16d
16f
16c
16f
=164
16d
16f
16b-
16f
16d
16f
16c
16f
=165
16d
16f
16b-
16b-
16d
16f
16b
16b
=166
16cc
16g
16f#
16g
16f#
16g
16f
16g
=167
16e-
16g
16cc
16g
16f#
16g
16f
16g
=168
16e-
16ee-
16dd
16cc
16b
16cc
16b
16cc
=169
16f#
16ee-
16dd
16cc
16b
16cc
16b
16cc
=170
8b
8gg
8gg
8gg
=171
8gg
8gg
8gg
8gg
=172
2gg
=173
4ee-
4r
=174
2aa-
=175
4ff
4r
=176
2gg
=177
4ee-
4r
=178
2aa-
=179
4ff
4r
=180
2aa-
=181
4ff
4r
=182
2bb-
=183
4gg
4ccc
=184
8ff
8bb-
16aa
16bb-
16ccc
16aa
=185
8bb-
8bb-
8bb-
8r
=186
8f
8f
8f
8r
=187
8B-
8B-
8B-
8r
=188
2ccc
=189
4ff
4bb-
=190
8aa-
16gg
16ff
16ee-
16dd
16ff
16dd
=191
2eee-
=192
4.d-
16c
16d-
=193
8c
16ccc
16bb-
16aa-
16gg
16ff
16ee-
=194
16dd
16ee-
16ff
16gg
16aa-
16bb-
16ccc
16ddd
=195
2eee-
=196
4.d-
16c
16d-
=197
8c
16ccc
16bb-
16aa-
16gg
16ff
16ee-
=198
16dd
16ee-
16ff
16gg
16aa-
16bb-
16ccc
16ddd
=199
8eee-
8eee-
16ddd
16eee-
16fff
16ddd
=200
8eee-
8ccc
16bb
16ccc
16ddd
16bb
=201
8ccc
8aa-
16gg
16aa-
16bb-
16gg
=202
8aa-
8gg
16ff
16gg
16ee-
16ff
=203
16dd
16ee-
16cc
16dd
16b-
16cc
16a
16cc
=204
2bb-
=205
4gg
4ccc[
=206
4ccc]
8aa-
8ff
=207
4bb-
8gg
8ee-
=208
4.aa
8ccc
=209
8eee-
8aa
8aa
8aa
=210
8bb-
16aa-
16bb-
8ccc
8bb-
=211
8aa-
8gg
8ff
8ee-
=212
8dd
16ff
16gg
8aa-
8gg
=213
8ff
8ee-
8dd
8cc
=214
4.b-
16cc
16dd-
=215
8ee-
8g
8a-
8a-
=216
4.f
16a-
16b-
=217
8cc
8b-
8b-
8a-
=218
8a-
8g
8a-
8f
=219
8f
8e-
8e-
8d
=220
4.b-
16cc
16dd-
=221
8ee-
8g
8a-
8a-
=222
4.f
16a-
16b-
=223
8cc
8b-
8b-
8a-
=224
8a-
8g
8a-
8f
=225
8f
8e-
8e-
8d
=226
4e-
4r
=227
2r
=228
2ee-
=229
4cc
4ff
=230
2ee-
=231
4cc
4ff
=232
2ee-
=233
4dd
4aa-
=234
4gg
4ff
=235
8ee-
16dd
16ee-
8ff
8dd
=236
4ee-
4r
=237
2r
=238
4r
4gg[
=239
8gg]
16aa-
16ff
8dd
8b-
=240
8ee-
8b-
4gg[
=241
8gg]
16aa-
16ff
8dd
8b-
=242
8ee-
8b-
4gg[
=243
8gg]
16aa-
16gg
8ff
8ee-
=244
4dd
4ee-
=245
4a-
4g
=246
4f
4r
=247
8r
8f
8g
8a-
=248
8b-
8g
8a-
8b-
=249
8cc
8cc
8dd
8ee-
=250
8ff
8dd
8ee-
8ff
=251
8gg
8ee
8ff
8gg
=252
16aa-
16bb-
16ccc
16bb-
16aa-
16gg
16ff
16ee-
=253
8dd
8bb-
8ccc
8ddd
=254
16eee-
16bb-
16eee-
16bb-
16eee-
16bb-
16gg
16ee-
=255
16bb-
16bb-
16aa
16bb-
16aa-
16bb-
16ff
16bb-
=256
16gg
16bb-
16ccc
16bb-
16eee-
16bb-
16gg
16ee-
=257
8dd
16b-
16a
16b-
16cc
16dd
16ee-
=258
16ff
16ee-
16dd
16cc
16dd
16ee-
16ff
16gg
=259
16aa-
16ff
16dd
16b-
16a-
16f
16d
16B-
=260
16A
16B-
16A
16B-
16A
16B-
16A-
16B-
=261
16G
16B-
16e-
16e-
16A
16B-
16A-
16B-
=262
16G
16B-
16e-
16e-
16A
16B-
16A-
16B-
=263
16G
16B-
16e-
16e-
16A-
16c
16f
16f
=264
16B-
16d
16g
16g
16c
16e-
16a-
16a-
=265
16d
16f
16g
16a-
16b-
16cc
16dd
16ee-
=266
16ff
16gg
16aa-
16bb-
8ccc
8ccc
=267
8bb-
8eee-
8r
8aa-
=268
8r
8gg
8r
8ff
=269
8ee-
4bb-
8bb-[
=270
8bb-]
4aa-
8gg
=271
8gg
8ff
8ee-
8dd
=272
8ee-
4bb-
8bb-
=273
8ggg
8aa-
8fff
8gg
=274
8ccc
24bb-
24aa-
24gg
32ff
32ee-
32dd
32cc
32b-
32a-
32g
32f
=275
2e-
=276
4.d-
16c
16d-
=277
8c
8a-
8a-
8a-
=278
8d
8b-
8b-
8b-
=279
2e-
=280
4.e
16d
16e
=281
8f
8a-
8a-
8a-
=282
8c-
8a-
8a-
8a-
=283
8B-
8a-
8a-
8a-
=284
8d
8a-
8a-
8a-
=285
8f
8a-
8a-
8a-
=286
8d
8b-
8b-
8b-
=287
8f
8b-
8b-
8b-
=288
8d
8cc-
8cc-
8cc-
=289
8r
8ff
8ff
8ff
=290
8r
8gg-
8gg-
8gg-
=291
8r
8ff
8ff
8ff
=292
8r
8ee-
8ee-
8ee-
=293
8r
8dd
8dd
8dd
=294
8r
8gg-
8gg-
8gg-
=295
8r
8ff
8ff
8ff
=296
8r
8ee-
8ee-
8ee-
=297
8r
8dd
8dd
8dd
=298
8ccc-
8dd
8dd
8dd
=299
4ee-
4gg[
=300
8gg]
16aa-
16ff
8dd
8b-
=301
8ee-
8b-
4gg[
=302
8gg]
16aa-
16ff
8dd
8b-
=303
8ee-
16bb-
16gg
8ee-
8eee-
=304
8r
16ccc
16aa-
8ff
8cc
=305
8r
16bb-
16gg
8ee-
8b-
=306
8r
16aa-
16ff
8dd
8b-
=307
2bb-
=308
2aa-
=309
2gg
=310
2ff
=311
8ee-
8bb-
16dd
16ee-
16ff
16dd
=312
8ee-
8bb-
16dd
16ee-
16ff
16dd
=313
4ee-
4gg
=314
4e-
4r
==
*-
